static/images/mobile/copyright/wikidata.svg

<?xml version="1.0" encoding="UTF-8"?>
<svg xmlns="http://www.w3.org/2000/svg" width="50" height="50" viewBox="0 0 50 50">
	<title>
		wikidata-logo
	</title>
	<g id="wikidata-logo" fill="none" fill-rule="evenodd" stroke="none" stroke-width="1">
		<path id="Shape" fill="#900" fill-rule="nonzero" d="M1.52766688e-13,40.7670371 L1.794632,40.7670371 L1.794632,10.0000037 L1.52766688e-13,10.0000037 L1.52766688e-13,40.7670371 Z M3.70908062,40.7670371 L9.21241969,40.7670371 L9.21241969,10.0000037 L3.70908062,10.0000037 L3.70908062,40.7670371 Z M11.0074252,10.0000037 L11.0074252,40.7659393 L16.5107643,40.7659393 L16.5107643,10.0000037 L11.0074252,10.0000037 Z"/>
		<path id="Shape" fill="#396" fill-rule="nonzero" d="M44.2805311,40.7692285 L46.075536,40.7692285 L46.075536,10 L44.2805311,10 L44.2805311,40.7692285 Z M47.9899846,10 L47.9899846,40.7692285 L49.7846166,40.7692285 L49.7846166,10 L47.9899846,10 Z M18.3651182,40.7692328 L20.1597502,40.7692328 L20.1597502,10.0000037 L18.3651182,10.0000037 L18.3651182,40.7692328 Z M22.0745717,10.0000037 L22.0745717,40.768135 L23.8695772,40.768135 L23.8695772,10.0000037 L22.0745717,10.0000037 Z"/>
		<path id="Shape" fill="#069" fill-rule="nonzero" d="M25.723184,40.7692328 L31.2272702,40.7692328 L31.2272702,10.0000037 L25.723184,10.0000037 L25.723184,40.7692328 Z M33.0215286,40.7692328 L34.9356037,40.7692328 L34.9356037,10.0000037 L33.0215286,10.0000037 L33.0215286,40.7692328 L33.0215286,40.7692328 Z M36.7306092,10.0000037 L36.7306092,40.768135 L42.2339483,40.768135 L42.2339483,10.0000037 L36.7306092,10.0000037 Z"/>
	</g>
</svg>

<svg xmlns="http://www.w3.org/2000/svg" width="50" height="50"><g fill="none" fill-rule="nonzero"><path fill="#900" d="M0 40.767h1.795V10H0v30.767zm3.71 0h5.502V10H3.71v30.767zM11.006 10v30.766h5.504V10h-5.504z"/><path fill="#396" d="M44.28 40.77h1.796V10H44.28v30.77zM47.99 10v30.77h1.795V10H47.99zM18.365 40.77h1.795V10h-1.795v30.77zM22.075 10v30.768h1.795V10h-1.795z"/><path fill="#069" d="M25.723 40.77h5.504V10h-5.504v30.77zm7.299 0h1.914V10h-1.914v30.77zM36.73 10v30.768h5.503V10H36.73z"/></g></svg>
